svg/maximize.svg

<?xml version="1.0" encoding="UTF-8"?>
<svg xmlns="http://www.w3.org/2000/svg" xmlns:xlink="http://www.w3.org/1999/xlink" width="32" height="32" viewBox="0 0 32 32">
<path fill-rule="nonzero" fill="rgb(0%, 0%, 0%)" fill-opacity="1" d="M 12.5 2 L 3.5 2 C 2.667969 2 2 2.667969 2 3.5 L 2 12.5 C 2 13.105469 2.363281 13.65625 2.925781 13.886719 C 3.488281 14.117188 4.132812 13.992188 4.5625 13.5625 L 7.0625 11.0625 L 12 16 L 7.0625 20.9375 L 4.5625 18.4375 C 4.132812 18.007812 3.488281 17.878906 2.925781 18.113281 C 2.363281 18.34375 2 18.894531 2 19.5 L 2 28.5 C 2 29.332031 2.667969 30 3.5 30 L 12.5 30 C 13.105469 30 13.65625 29.636719 13.886719 29.074219 C 14.121094 28.511719 13.992188 27.867188 13.5625 27.4375 L 11.0625 24.9375 L 16 20 L 20.9375 24.9375 L 18.4375 27.4375 C 18.007812 27.867188 17.878906 28.511719 18.113281 29.074219 C 18.34375 29.636719 18.894531 30 19.5 30 L 28.5 30 C 29.332031 30 30 29.332031 30 28.5 L 30 19.5 C 30 18.894531 29.636719 18.34375 29.074219 18.113281 C 28.511719 17.878906 27.867188 18.007812 27.4375 18.4375 L 24.9375 20.9375 L 20 16 L 24.9375 11.0625 L 27.4375 13.5625 C 27.867188 13.992188 28.511719 14.117188 29.074219 13.886719 C 29.636719 13.65625 30 13.105469 30 12.5 L 30 3.5 C 30 2.667969 29.332031 2 28.5 2 L 19.5 2 C 18.894531 2 18.34375 2.363281 18.113281 2.925781 C 17.878906 3.488281 18.007812 4.132812 18.4375 4.5625 L 20.9375 7.0625 L 16 12 L 11.0625 7.0625 L 13.5625 4.5625 C 13.992188 4.132812 14.117188 3.488281 13.886719 2.925781 C 13.65625 2.363281 13.105469 2 12.5 2 "/>
</svg>

<svg role="img" viewBox="0 0 32 32" height="32" width="32" xmlns="http://www.w3.org/2000/svg"><path d="M12.5 2h-9C2.668 2 2 2.668 2 3.5v9c0 .605.363 1.156.926 1.387.562.23 1.207.105 1.636-.325l2.5-2.5L12 16l-4.937 4.938-2.5-2.5a1.497 1.497 0 0 0-1.637-.325c-.563.23-.926.782-.926 1.387v9c0 .832.668 1.5 1.5 1.5h9c.605 0 1.156-.363 1.387-.926a1.497 1.497 0 0 0-.325-1.637l-2.5-2.5L16 20l4.938 4.938-2.5 2.5a1.497 1.497 0 0 0-.325 1.636c.23.563.782.926 1.387.926h9c.832 0 1.5-.668 1.5-1.5v-9c0-.605-.363-1.156-.926-1.387a1.497 1.497 0 0 0-1.637.325l-2.5 2.5L20 16l4.938-4.937 2.5 2.5c.43.43 1.074.554 1.636.324.563-.23.926-.782.926-1.387v-9c0-.832-.668-1.5-1.5-1.5h-9c-.605 0-1.156.363-1.387.926a1.497 1.497 0 0 0 .325 1.636l2.5 2.5L16 12l-4.937-4.937 2.5-2.5c.43-.43.554-1.075.324-1.637A1.498 1.498 0 0 0 12.5 2"/></svg>
